packages/icons/svgs/duotone/Source=megaphone.svg

<svg width="24" height="24" viewBox="0 0 24 24" fill="none" xmlns="http://www.w3.org/2000/svg">
<path opacity="0.55" d="M2.76605 11.0063C2.76605 12.0261 3.17118 13.0042 3.89231 13.7253C4.61344 14.4464 5.5915 14.8516 6.61134 14.8516H10.4566V7.161H6.61134C5.5915 7.161 4.61344 7.56612 3.89231 8.28725C3.17118 9.00838 2.76605 9.98645 2.76605 11.0063Z" fill="black" style="fill:black;fill-opacity:1;"/>
<path d="M2 11.0063C2.00199 9.78389 2.48846 8.61213 3.35282 7.74777C4.21719 6.88341 5.38895 6.39693 6.61134 6.39495H10.4416C10.727 6.37993 15.5937 6.03445 20.2351 2.13659C20.4595 1.9477 20.7333 1.82686 21.0241 1.7883C21.3149 1.74975 21.6107 1.79508 21.8766 1.91897C22.1425 2.04285 22.3675 2.24013 22.5251 2.48758C22.6827 2.73503 22.7663 3.02235 22.766 3.31571V18.6969C22.7663 18.9902 22.6827 19.2775 22.5251 19.525C22.3675 19.7724 22.1425 19.9697 21.8766 20.0936C21.6107 20.2175 21.3149 20.2628 21.0241 20.2243C20.7333 20.1857 20.4595 20.0649 20.2351 19.876C16.6076 16.8268 12.8299 15.9556 11.2302 15.7077V18.7644C11.2297 19.017 11.1671 19.2655 11.048 19.4882C10.9288 19.7108 10.7566 19.9008 10.5467 20.0412L9.48779 20.7472C9.28354 20.8832 9.04973 20.9684 8.80587 20.9957C8.562 21.023 8.31515 20.9916 8.08587 20.9042C7.85659 20.8167 7.65154 20.6757 7.4878 20.4929C7.32406 20.3102 7.20638 20.0909 7.14457 19.8534L6.01051 15.5876C4.90018 15.4401 3.88129 14.8941 3.14352 14.0513C2.40574 13.2085 1.99935 12.1264 2 11.0063ZM21.2264 18.6893V3.31571C17.1108 6.77046 12.8975 7.64166 11.2302 7.85946V14.1531C12.8975 14.3709 17.1108 15.2496 21.2264 18.6893ZM8.63162 19.4629V19.4704L9.69057 18.7644V15.6176H7.61021L8.63162 19.4629ZM6.61134 14.0855H9.69057V7.92705H6.61134C5.79468 7.92705 5.01146 8.25147 4.43399 8.82894C3.85652 9.4064 3.53211 10.1896 3.53211 11.0063C3.53211 11.8229 3.85652 12.6062 4.43399 13.1836C5.01146 13.7611 5.79468 14.0855 6.61134 14.0855Z" fill="black" style="fill:black;fill-opacity:1;"/>
</svg>

<svg xmlns="http://www.w3.org/2000/svg" width="24" height="24" viewBox="0 0 24 24"><path d="M2.766 11.006a3.845 3.845 0 0 0 3.845 3.846h3.846V7.16H6.61a3.845 3.845 0 0 0-3.845 3.845" opacity=".55"/><path d="M2 11.006a4.62 4.62 0 0 1 4.611-4.611h3.83c.286-.015 5.153-.36 9.794-4.258a1.54 1.54 0 0 1 2.531 1.179v15.38a1.539 1.539 0 0 1-2.53 1.18c-3.628-3.05-7.406-3.92-9.006-4.168v3.056a1.54 1.54 0 0 1-.683 1.277l-1.06.706a1.54 1.54 0 0 1-2.342-.894L6.01 15.588A4.62 4.62 0 0 1 2 11.006m19.226 7.683V3.316c-4.115 3.454-8.328 4.326-9.996 4.543v6.294c1.668.218 5.88 1.097 9.996 4.536m-12.594.774v.007l1.059-.706v-3.146H7.61zm-2.02-5.378H9.69V7.927H6.61a3.08 3.08 0 0 0 0 6.159"/></svg>
